X:1
T:More
T:More
C:Riz Ortolani & Nini Oliviero
Z:All Rights Reserved
L:1/4
M:2/2
K:G
V:1 treble nm="Voice"
%%MIDI program 52
V:1
"Gmaj7" D3 E/F/ |"Em7" G F G B |"Am7" C3 B |"D9" A4 |"Gmaj7" B,3 C/D/ |"Em7" E ^D E G | %6
w: More than the|great- est love the|world has|known;|this is the|love I'll give to|
"Am7" A,3 G |"D9" F4 |"Gmaj7" D3 E/F/ |"Em7" G F G B |"Am7" C3 B |"D9" A4 |"Gmaj7" B,3 C/D/ | %13
w: you a-|lone.|More than the|sim- ple words I|try to|say;|I on- ly|
"Em7" E ^D E G |"Am7" A,3 G |"D9" F4 |"Em" G3 F/G/ |"Em/D#" A G G F |"Em7/D" G3 F/G/ | %19
w: live to love you|more each|day.|More than you'll|ev- er know, my|arms long to|
"Em6/C#" A G G F |"Am7/C" G3 F/G/ |"A7" e B A G |"Am7" A G G F |"D7" F E E _E |"Gmaj7" D3 =E/F/ | %25
w: hold you so, my|life will be|in your keep- ing,|wak ing, sleep ing,|laugh- ing, weep- ing.|Long- er- than|
"Em7" G F G B |"Am7" C3 B |"D9" A4 |"Gmaj7" B,3 C/D/ |"Em7" E ^D E G |"Am7" A,3 G |"F#m7""B7" F4 | %32
w: al- ways is a|long, long|time,|but far be-|yond for- ev- er|you'll be|mine.|
"Em" G3 F/G/ |"Em/D#" A G G F |"Em7/D" G3 F/G/ |"Em6/C#" A G G F |"Am7/C" G3 F/G/ | %37
w: I know I|nev- er lived be-|fore and my|heart is ver- y|sure no- one|
"Am7" A G"D7" G F |"G" G4- | G3 z |] %40
w: else could love you|more.||

